src/assets/Blume-Small-Logo-White.svg

<svg xmlns:xlink="http://www.w3.org/1999/xlink" xmlns="http://www.w3.org/2000/svg" width="135" height="48" viewBox="0 0 135 48" fill="none">
<path d="M97.4957 5.24921C97.5091 5.53872 97.5359 5.8269 97.5359 6.11642C97.5359 17.5872 97.5359 29.0584 97.5359 40.53V41.487H91.6758V15.704H91.6075L89.026 41.4843H84.391C83.4662 32.9731 82.5409 24.4569 81.6152 15.9358H81.5937V41.4749H75.9709C75.9372 41.3191 75.9152 41.1609 75.9053 41.0018C75.9053 29.0852 75.908 17.1676 75.9133 5.24921H83.5533C84.6631 12.0435 86.356 18.7479 86.7018 25.6682C86.8358 24.8479 86.8452 24.0249 86.9605 23.2153C87.5797 18.8752 88.2244 14.5379 88.8598 10.1991C89.1028 8.5496 89.3454 6.89963 89.5876 5.24921H97.4957Z" fill="white"/>
<path d="M19.7554 5.65121C22.4361 5.65925 25.1168 5.63512 27.7975 5.69008C28.8434 5.70525 29.8853 5.82242 30.9084 6.03991C33.0597 6.51037 34.5395 7.85877 35.2324 9.92693C36.2175 12.8181 36.3611 15.9296 35.6466 18.8993C35.1936 20.8066 34.0971 22.2006 31.8185 22.5772C32.2783 22.7018 32.5624 22.7662 32.8399 22.8573C34.3143 23.3412 35.3343 24.3733 35.9147 25.7538C37.5566 29.6529 37.562 33.6351 36.034 37.5489C34.9804 40.2404 32.7126 41.57 29.926 41.767C27.0804 41.9681 24.2147 41.8877 21.3584 41.9306L19.75 41.9507L19.7554 5.65121ZM26.0738 31.3042V36.2515C26.0738 37.7728 26.0738 37.7728 27.6018 37.7379C29.1083 37.7031 29.6874 37.301 29.9675 35.8306C30.4618 33.153 30.5107 30.4123 30.1123 27.7188C29.7785 25.3397 29.0681 24.8049 26.7252 24.8397C26.2373 24.8477 26.0644 24.9818 26.0698 25.4871C26.0885 27.4253 26.0738 29.3647 26.0738 31.3042ZM26.0738 9.97787V19.1084C26.0738 20.3978 26.0738 20.3978 27.3364 20.3951C28.8108 20.3951 29.548 19.9179 29.6364 18.4663C29.7705 16.3848 29.804 14.2737 29.5936 12.2029C29.3871 10.1642 28.2411 9.53823 26.0738 9.97787Z" fill="white"/>
<path d="M63.3172 42.7507C62.5987 42.6086 61.8709 42.5027 61.1632 42.3191C58.3136 41.5819 56.4988 39.436 56.2414 36.502C56.1677 35.6589 56.1275 34.8091 56.1261 33.9634C56.1181 24.8588 56.1181 15.7538 56.1261 6.64829V5.7288H62.6309V6.57591C62.6309 15.9039 62.6331 25.2318 62.6376 34.5598C62.6315 35.1834 62.6795 35.8063 62.781 36.4216C62.9553 37.4295 63.5316 37.8544 64.569 37.841C65.6065 37.8276 66.1319 37.3772 66.278 36.3452C66.3676 35.7277 66.4124 35.1046 66.412 34.4807C66.4201 25.1974 66.4201 15.9137 66.412 6.62952V5.71942H72.6688V6.44187C72.6688 15.8378 72.6652 25.2332 72.6581 34.6282C72.6587 35.5416 72.5798 36.4534 72.4222 37.3531C71.9088 40.2161 70.1034 41.9599 67.227 42.4599C66.6828 42.5537 66.1386 42.6529 65.5958 42.7507H63.3172Z" fill="white"/>
<path d="M101.182 41.869V5.72498H114.285V11.0341H112.819C111.232 11.0341 109.647 11.0341 108.063 11.0341C107.732 11.0341 107.44 11.0341 107.441 11.5019C107.454 14.5593 107.453 17.6153 107.46 20.6726C107.476 20.7597 107.502 20.8447 107.538 20.9259H113.495V25.9174C113.264 25.9308 113.026 25.9549 112.789 25.9549C111.225 25.9549 109.662 25.9737 108.098 25.9469C107.617 25.9389 107.428 26.0608 107.428 26.5769C107.448 29.6999 107.448 32.8234 107.428 35.9473C107.428 36.462 107.617 36.588 108.098 36.5839C110.195 36.5638 112.294 36.5746 114.398 36.5746H115.25V41.8703L101.182 41.869Z" fill="white"/>
<path d="M53.6156 41.8919H39.6143V5.72113H46.0265V35.6512C46.0265 36.5721 46.0265 36.5734 46.9259 36.5734C49.1361 36.5734 51.3491 36.5734 53.6142 36.5734L53.6156 41.8919Z" fill="white"/>
</svg>

<svg xmlns="http://www.w3.org/2000/svg" width="135" height="48" fill="none"><path fill="#fff" d="M97.496 5.25c.013.289.04.577.04.866v35.371h-5.86V15.704h-.069l-2.581 25.78h-4.635l-2.776-25.548h-.021v25.539H75.97a3 3 0 0 1-.066-.473q0-17.875.008-35.753h7.64c1.11 6.795 2.803 13.499 3.149 20.42.134-.821.143-1.644.258-2.454.62-4.34 1.264-8.677 1.9-13.016l.728-4.95zM19.755 5.651c2.681.008 5.362-.016 8.043.04 1.045.014 2.087.131 3.11.349 2.152.47 3.631 1.819 4.324 3.887a16.1 16.1 0 0 1 .415 8.972c-.453 1.908-1.55 3.302-3.828 3.678.46.125.743.19 1.02.28 1.475.484 2.495 1.516 3.076 2.897 1.642 3.899 1.647 7.881.119 11.795-1.054 2.691-3.321 4.021-6.108 4.218-2.846.201-5.711.12-8.568.164l-1.608.02zm6.319 25.653v4.948c0 1.52 0 1.52 1.528 1.486 1.506-.035 2.085-.437 2.366-1.907.494-2.678.543-5.419.144-8.112-.333-2.38-1.044-2.914-3.387-2.88-.488.009-.66.143-.655.648.018 1.938.004 3.878.004 5.817m0-21.326v9.13c0 1.29 0 1.29 1.262 1.287 1.475 0 2.212-.477 2.3-1.929.134-2.081.168-4.192-.042-6.263-.207-2.039-1.353-2.665-3.52-2.225M63.317 42.75c-.718-.141-1.446-.247-2.154-.43-2.85-.738-4.664-2.884-4.922-5.818a30 30 0 0 1-.115-2.539q-.012-13.657 0-27.315v-.92h6.505v.848q0 13.992.007 27.984a11 11 0 0 0 .143 1.862c.174 1.008.75 1.432 1.788 1.419 1.037-.013 1.563-.464 1.709-1.496q.135-.927.134-1.864.012-13.925 0-27.851v-.91h6.257v.722q0 14.094-.01 28.186 0 1.373-.237 2.725c-.513 2.863-2.319 4.607-5.195 5.107q-.816.143-1.631.29zM101.182 41.869V5.725h13.103v5.31h-6.222c-.331 0-.623 0-.622.467.013 3.057.012 6.113.019 9.17q.024.132.078.254h5.957v4.991c-.231.014-.469.038-.706.038-1.564 0-3.127.019-4.691-.008-.481-.008-.67.114-.67.63q.03 4.684 0 9.37c0 .515.189.641.67.637 2.097-.02 4.196-.01 6.3-.01h.852v5.296zM53.616 41.892H39.614V5.722h6.413v29.93c0 .92 0 .921.899.921h6.688z"/></svg>
